X:3561
T:Cross the Fence
M:4/4
R:reel
C:Brendan McGlinchy
L:1/8
Z:added by Alf warnock@magma.ca
K:G
DGA|\"G"~B3G"C" ~c3A|"G"d^cde dBGB|"C"~c3d"G" BGDG|"Am"cA (3BAG "D7"AGFD|
"G"GDB,D GABc|dgge dBGB|dg (3Bcd "D7"ecAF|"G"AGGF G:|
AG|\"D7"FDA,D FAcA|"G"B~G3 DGBd|"C"ecc2 "G"dBB2|"A"cAag "D7" fdcA|
"G"D~B3 "C"D~c3|"G"~d3e dBGB|dgBd "D7"ecAF|"G"AGGF G2:|


